svg/file_image_plus_outline.svg

<svg xmlns="http://www.w3.org/2000/svg" viewBox="0 0 24 24"><path d="m7 19 5-5 1.88 1.88c-.55.91-.88 1.98-.88 3.12zm3-8.5C10 9.67 9.33 9 8.5 9S7 9.67 7 10.5 7.67 12 8.5 12s1.5-.67 1.5-1.5m3.09 9.5H6V4h7v5h5v4.09c.33-.05.66-.09 1-.09s.67.04 1 .09V8l-6-6H6a2 2 0 0 0-2 2v16c0 1.11.89 2 2 2h7.81c-.35-.61-.6-1.28-.72-2M18 15v3h-3v2h3v3h2v-3h3v-2h-3v-3z"/></svg>

<svg xmlns="http://www.w3.org/2000/svg" id="mdi-file-image-plus-outline" viewBox="0 0 24 24"><path d="M7 19L12 14L13.88 15.88C13.33 16.79 13 17.86 13 19H7M10 10.5C10 9.67 9.33 9 8.5 9S7 9.67 7 10.5 7.67 12 8.5 12 10 11.33 10 10.5M13.09 20H6V4H13V9H18V13.09C18.33 13.04 18.66 13 19 13C19.34 13 19.67 13.04 20 13.09V8L14 2H6C4.89 2 4 2.9 4 4V20C4 21.11 4.89 22 6 22H13.81C13.46 21.39 13.21 20.72 13.09 20M18 15V18H15V20H18V23H20V20H23V18H20V15H18Z" /></svg>
